X: 42474
T: Wexford Carol, The
R: waltz
M: 3/4
K: Gmajor
D GG/F/|G3A Bc|d3 B cB|G D2 E =FE|=F3 D GG/^F/|
G3A Bc|d3 B cd|B G2 A GG|G3||
G G=f|d c3 A =Bc|=B3 d/c/ BA|G D2 E =FE|=F3 D GG/^F/|
G3A Bc|d3 B cd|B G2 A GG|G3||

